svgs/light/arrow-right-to-city.svg

<svg xmlns="http://www.w3.org/2000/svg" viewBox="0 0 640 512"><!--! Font Awesome Pro 6.6.0 by @fontawesome - https://fontawesome.com License - https://fontawesome.com/license (Commercial License) Copyright 2024 Fonticons, Inc. --><path d="M320 48c0-8.8 7.2-16 16-16l128 0c8.8 0 16 7.2 16 16l0 160c0 8.8 7.2 16 16 16l64 0 32 0c8.8 0 16 7.2 16 16l0 256c0 8.8 7.2 16 16 16s16-7.2 16-16l0-256c0-26.5-21.5-48-48-48l-16 0 0-80c0-8.8-7.2-16-16-16s-16 7.2-16 16l0 80-32 0 0-144c0-26.5-21.5-48-48-48L336 0c-26.5 0-48 21.5-48 48l0 448c0 8.8 7.2 16 16 16s16-7.2 16-16l0-448zm32 48l0 32c0 17.7 14.3 32 32 32l32 0c17.7 0 32-14.3 32-32l0-32c0-17.7-14.3-32-32-32l-32 0c-17.7 0-32 14.3-32 32zm64 0l0 32-32 0 0-32 32 0zm96 160c-17.7 0-32 14.3-32 32l0 32c0 17.7 14.3 32 32 32l32 0c17.7 0 32-14.3 32-32l0-32c0-17.7-14.3-32-32-32l-32 0zm0 32l32 0 0 32-32 0 0-32zM480 416l0 32c0 17.7 14.3 32 32 32l32 0c17.7 0 32-14.3 32-32l0-32c0-17.7-14.3-32-32-32l-32 0c-17.7 0-32 14.3-32 32zm64 0l0 32-32 0 0-32 32 0zM384 192c-17.7 0-32 14.3-32 32l0 32c0 17.7 14.3 32 32 32l32 0c17.7 0 32-14.3 32-32l0-32c0-17.7-14.3-32-32-32l-32 0zm0 32l32 0 0 32-32 0 0-32zM352 352l0 32c0 17.7 14.3 32 32 32l32 0c17.7 0 32-14.3 32-32l0-32c0-17.7-14.3-32-32-32l-32 0c-17.7 0-32 14.3-32 32zm64 0l0 32-32 0 0-32 32 0zM155.3 148.7c-6.2-6.2-16.4-6.2-22.6 0s-6.2 16.4 0 22.6L201.4 240 16 240c-8.8 0-16 7.2-16 16s7.2 16 16 16l185.4 0-68.7 68.7c-6.2 6.2-6.2 16.4 0 22.6s16.4 6.2 22.6 0l96-96c6.2-6.2 6.2-16.4 0-22.6l-96-96z"/></svg>

<svg xmlns="http://www.w3.org/2000/svg" viewBox="0 0 640 512"><!--! Font Awesome Pro 6.4.0 by @fontawesome - https://fontawesome.com License - https://fontawesome.com/license (Commercial License) Copyright 2023 Fonticons, Inc. --><path d="M320 48c0-8.8 7.2-16 16-16H464c8.8 0 16 7.2 16 16V208c0 8.8 7.2 16 16 16h64 32c8.8 0 16 7.2 16 16V496c0 8.8 7.2 16 16 16s16-7.2 16-16V240c0-26.5-21.5-48-48-48H576V112c0-8.8-7.2-16-16-16s-16 7.2-16 16v80H512V48c0-26.5-21.5-48-48-48H336c-26.5 0-48 21.5-48 48V496c0 8.8 7.2 16 16 16s16-7.2 16-16V48zm32 48v32c0 17.7 14.3 32 32 32h32c17.7 0 32-14.3 32-32V96c0-17.7-14.3-32-32-32H384c-17.7 0-32 14.3-32 32zm64 0v32H384V96h32zm96 160c-17.7 0-32 14.3-32 32v32c0 17.7 14.3 32 32 32h32c17.7 0 32-14.3 32-32V288c0-17.7-14.3-32-32-32H512zm0 32h32v32H512V288zM480 416v32c0 17.7 14.3 32 32 32h32c17.7 0 32-14.3 32-32V416c0-17.7-14.3-32-32-32H512c-17.7 0-32 14.3-32 32zm64 0v32H512V416h32zM384 192c-17.7 0-32 14.3-32 32v32c0 17.7 14.3 32 32 32h32c17.7 0 32-14.3 32-32V224c0-17.7-14.3-32-32-32H384zm0 32h32v32H384V224zM352 352v32c0 17.7 14.3 32 32 32h32c17.7 0 32-14.3 32-32V352c0-17.7-14.3-32-32-32H384c-17.7 0-32 14.3-32 32zm64 0v32H384V352h32zM155.3 148.7c-6.2-6.2-16.4-6.2-22.6 0s-6.2 16.4 0 22.6L201.4 240H16c-8.8 0-16 7.2-16 16s7.2 16 16 16H201.4l-68.7 68.7c-6.2 6.2-6.2 16.4 0 22.6s16.4 6.2 22.6 0l96-96c6.2-6.2 6.2-16.4 0-22.6l-96-96z"/></svg>
